updated-assets/images/education-cap.svg

<svg width="32" height="32" viewBox="0 0 32 32" fill="none" xmlns="http://www.w3.org/2000/svg">
<path d="M24.6861 11.9472C24.6858 11.879 24.6712 11.8117 24.6432 11.7496C24.6153 11.6875 24.5745 11.6319 24.5237 11.5865C24.4725 11.5414 24.4125 11.5075 24.3474 11.4871C24.2824 11.4667 24.2137 11.4602 24.146 11.4681L7.72742 13.4013C7.60988 13.4152 7.50152 13.4717 7.42288 13.5602C7.34425 13.6487 7.3008 13.7629 7.30078 13.8813V18.2309C7.30078 20.1383 12.7689 20.6474 16 20.6474C19.2309 20.6474 24.6992 20.1383 24.6992 18.2309V18.2299L24.6861 11.9472Z" fill="#0B4870"/>
<path d="M24.6862 13.3979H15.9868V20.6472L16.0001 20.6473C19.1467 20.6473 24.4125 20.1639 24.6862 18.3772V13.3979Z" fill="#0B4870"/>
<path d="M30.4052 9.27872L18.0375 5.03824C16.7235 4.58752 15.2764 4.58752 13.9624 5.03824L1.59507 9.27872C1.00003 9.48255 0.614746 10.0208 0.614746 10.6502C0.614746 11.2794 0.999946 11.8177 1.59507 12.0215L13.9625 16.2618C14.6184 16.4861 15.3069 16.6003 16 16.5998C16.6932 16.6004 17.3816 16.4861 18.0375 16.2618L30.4054 12.0215C31.0006 11.8177 31.3852 11.2794 31.3852 10.6502C31.3851 10.0208 31.0004 9.48255 30.4052 9.27872Z" fill="#0E538C"/>
<path d="M25.1693 21.1308C25.1058 21.1308 25.043 21.1183 24.9844 21.094C24.9257 21.0697 24.8725 21.0341 24.8276 20.9893C24.7827 20.9444 24.7471 20.8911 24.7228 20.8325C24.6986 20.7738 24.6861 20.711 24.6861 20.6475V14.3326C24.6861 14.2319 24.6546 14.1337 24.5961 14.0517C24.5375 13.9697 24.4548 13.908 24.3595 13.8753L15.8301 10.951C15.7089 10.9094 15.6091 10.8214 15.5527 10.7063C15.4964 10.5912 15.488 10.4584 15.5294 10.3371C15.6163 10.0846 15.8905 9.94952 16.1435 10.0368L24.6728 12.9612C24.9587 13.0592 25.2069 13.244 25.3825 13.4899C25.5582 13.7358 25.6527 14.0305 25.6527 14.3327V20.6476C25.6527 20.7111 25.6402 20.7739 25.6159 20.8325C25.5916 20.8912 25.556 20.9445 25.5111 20.9893C25.4662 21.0342 25.4129 21.0698 25.3543 21.0941C25.2956 21.1183 25.2328 21.1308 25.1693 21.1308Z" fill="#2A94F4"/>
<path d="M25.6527 24.5138H24.6862C24.6227 24.5138 24.5598 24.5013 24.5012 24.477C24.4425 24.4528 24.3893 24.4172 24.3444 24.3723C24.2995 24.3274 24.2639 24.2741 24.2396 24.2154C24.2153 24.1568 24.2029 24.0939 24.2029 24.0305V21.1307C24.2029 20.5969 24.6355 20.1641 25.1694 20.1641C25.7034 20.1641 26.1359 20.5969 26.1359 21.1307V24.0305C26.1359 24.0939 26.1235 24.1568 26.0992 24.2154C26.0749 24.2741 26.0393 24.3274 25.9945 24.3722C25.9496 24.4171 25.8963 24.4527 25.8377 24.477C25.779 24.5013 25.7162 24.5138 25.6527 24.5138Z" fill="#FFBE55"/>
<path d="M24.686 17.1614C24.6894 17.1593 24.6936 17.1574 24.6969 17.1553L24.6941 15.8325C24.6936 15.84 24.6873 15.8486 24.686 15.856V17.1614Z" fill="#5C546A"/>
<path d="M16 11.4649C17.0676 11.4649 17.9331 11.0321 17.9331 10.4983C17.9331 9.96448 17.0676 9.53174 16 9.53174C14.9324 9.53174 14.0669 9.96448 14.0669 10.4983C14.0669 11.0321 14.9324 11.4649 16 11.4649Z" fill="#D3D3D3"/>
</svg>

<svg width="32" height="32" fill="none" xmlns="http://www.w3.org/2000/svg"><path d="M24.686 11.947a.486.486 0 0 0-.54-.479L7.727 13.401a.483.483 0 0 0-.426.48v4.35c0 1.907 5.468 2.416 8.699 2.416 3.23 0 8.7-.509 8.7-2.416v-.001l-.014-6.283Z" fill="#0B4870"/><path d="M24.686 13.398h-8.7v7.25H16c3.147 0 8.413-.484 8.686-2.27v-4.98Z" fill="#0B4870"/><path d="m30.405 9.279-12.367-4.24a6.31 6.31 0 0 0-4.076 0L1.595 9.278c-.595.204-.98.742-.98 1.371 0 .63.385 1.168.98 1.371l12.367 4.24A6.283 6.283 0 0 0 16 16.6a6.28 6.28 0 0 0 2.038-.338l12.367-4.24c.596-.204.98-.743.98-1.372a1.43 1.43 0 0 0-.98-1.371Z" fill="#0E538C"/><path d="M25.17 21.13a.483.483 0 0 1-.484-.482v-6.315a.484.484 0 0 0-.326-.458l-8.53-2.924a.484.484 0 0 1 .313-.914l8.53 2.924a1.45 1.45 0 0 1 .98 1.372v6.315a.483.483 0 0 1-.484.483Z" fill="#2A94F4"/><path d="M25.653 24.514h-.967a.483.483 0 0 1-.483-.483v-2.9a.966.966 0 1 1 1.933 0v2.9a.483.483 0 0 1-.483.483Z" fill="#FFBE55"/><path d="m24.686 17.161.01-.006-.002-1.323c0 .008-.007.017-.008.024v1.305Z" fill="#5C546A"/><path d="M16 11.465c1.068 0 1.933-.433 1.933-.967s-.865-.966-1.933-.966-1.933.432-1.933.966.865.967 1.933.967Z" fill="#D3D3D3"/></svg>
